sprite_icons/list-numbered.svg

<svg width="16" height="16" viewBox="0 0 16 16" xmlns="http://www.w3.org/2000/svg"><title>icn/list-numbered</title><path d="M6 2h8a1 1 0 0 1 0 2H6a1 1 0 1 1 0-2zm0 5h8a1 1 0 0 1 0 2H6a1 1 0 1 1 0-2zm0 5h8a1 1 0 0 1 0 2H6a1 1 0 0 1 0-2zM1.156 5v-.828h.816V2.204h-.72v-.636c.432-.084.708-.192.996-.372h.756v2.976h.684V5H1.156zm-.18 5v-.588c.9-.828 1.596-1.464 1.596-1.98 0-.342-.192-.504-.468-.504-.252 0-.444.18-.624.36l-.552-.552c.396-.42.756-.612 1.32-.612.768 0 1.308.492 1.308 1.248 0 .612-.576 1.284-1.092 1.812.192-.024.468-.048.636-.048h.636V10H.976zm1.26 5.072c-.618 0-1.068-.204-1.356-.54l.468-.648c.234.216.51.36.78.36.336 0 .552-.12.552-.36 0-.288-.15-.456-.948-.456v-.72c.636 0 .828-.168.828-.432 0-.228-.138-.348-.396-.348-.252 0-.432.108-.672.312l-.516-.624c.372-.312.768-.492 1.236-.492.84 0 1.38.384 1.38 1.074 0 .366-.204.642-.612.822v.024c.432.132.732.432.732.912 0 .72-.684 1.116-1.476 1.116z" fill="#000" fill-rule="evenodd"/></svg>

<svg xmlns="http://www.w3.org/2000/svg" width="16" height="16" viewBox="0 0 16 16">
  <path fill="#000000" fill-rule="evenodd" d="M6,2 L14,2 C14.5522847,2 15,2.44771525 15,3 C15,3.55228475 14.5522847,4 14,4 L6,4 C5.44771525,4 5,3.55228475 5,3 C5,2.44771525 5.44771525,2 6,2 Z M6,7 L14,7 C14.5522847,7 15,7.44771525 15,8 C15,8.55228475 14.5522847,9 14,9 L6,9 C5.44771525,9 5,8.55228475 5,8 C5,7.44771525 5.44771525,7 6,7 Z M6,12 L14,12 C14.5522847,12 15,12.4477153 15,13 C15,13.5522847 14.5522847,14 14,14 L6,14 C5.44771525,14 5,13.5522847 5,13 C5,12.4477153 5.44771525,12 6,12 Z M1.156,5 L1.156,4.172 L1.972,4.172 L1.972,2.204 L1.252,2.204 L1.252,1.568 C1.684,1.484 1.96,1.376 2.248,1.196 L3.004,1.196 L3.004,4.172 L3.688,4.172 L3.688,5 L1.156,5 Z M0.976,10 L0.976,9.412 C1.876,8.584 2.572,7.948 2.572,7.432 C2.572,7.09 2.38,6.928 2.104,6.928 C1.852,6.928 1.66,7.108 1.48,7.288 L0.928,6.736 C1.324,6.316 1.684,6.124 2.248,6.124 C3.016,6.124 3.556,6.616 3.556,7.372 C3.556,7.984 2.98,8.656 2.464,9.184 C2.656,9.16 2.932,9.136 3.1,9.136 L3.736,9.136 L3.736,10 L0.976,10 Z M2.236,15.072 C1.618,15.072 1.168,14.868 0.88,14.532 L1.348,13.884 C1.582,14.1 1.858,14.244 2.128,14.244 C2.464,14.244 2.68,14.124 2.68,13.884 C2.68,13.596 2.53,13.428 1.732,13.428 L1.732,12.708 C2.368,12.708 2.56,12.54 2.56,12.276 C2.56,12.048 2.422,11.928 2.164,11.928 C1.912,11.928 1.732,12.036 1.492,12.24 L0.976,11.616 C1.348,11.304 1.744,11.124 2.212,11.124 C3.052,11.124 3.592,11.508 3.592,12.198 C3.592,12.564 3.388,12.84 2.98,13.02 L2.98,13.044 C3.412,13.176 3.712,13.476 3.712,13.956 C3.712,14.676 3.028,15.072 2.236,15.072 Z"/>
</svg>
